X: 509
T: Lord Albermarle's Reel
%R: reel
B: "Preston's Twenty Four Country Dances for the Year 1803", Tho. Preston, ed. p.215 #1
F: http://folkopedia.efdss.org/images/archive/0/02/20121211105513%21Preston_24_1803.PDF
F: http://folkopedia.efdss.org/wiki/File:Preston_24_1803.PDF
Z: 2014 John Chambers <jc:trillian.mit.edu>
M: C|
L: 1/8
K: D
% - - - - - - - - - - - - - - - - - - - - - - - - -
|:\
(D/E/F/G/) AG FDAF | C3c ECGE | (D/E/F/G/) AG FDAF | ECcE D/D/DD2 :|
(d/e/f/g/) ag fdaf | (c/d/e/f/) gf ecge | (d/e/f/g/) ag fdaf | ecge d/d/dd2 |
(d/e/f/g/) ag fdaf | (c/d/e/f/) gf ecge | fdge afbg | ecge d/d/dd2 |]
% - - - - - - - - - - - - - - - - - - - - - - - - -
%%begintext align
%% Set & change sides, back again, hands across &
%% back again, lead down the middle swing corners
%% & lead outsides.
%%endtext

%%sep 1 1 500
%%sep 1 1 500
